X: 1
T: Air For A Whistle
M: 4/4
L: 1/8
R: reel
K: Edor
E2 B2 B2 AG | FGAB A2 GF | E2 B2 B2 Bc | dedc B2 BA |
E2 B2 B2 AG | FGAB A2 GF | GFEG FE D2 | (E4E4) :|
B2 e2 e2 de | fgfe d2 dc | B2 e2 e2 dc | d2 B2 B2 BA |
B2 e2 e2 de | fgfe d2 ef | gfeg fedg | (e4e4) :|
